X: 32730
T: Polly Put The Kettle On
R: strathspey
M: 4/4
K: Dmajor
|:f/|a>ba>g f<dd>f|g>fe>d c<AA>f|a>ba>g f>d (3fga|B>dc>A d2 d3/2:|
|:e/|f>dg>e f<dd>f|g>Be>d c<AA>e|f>dg>e f>d (3fga|B2 c>A d2 d3/2:|

